findly-builder/apps/searchassist/src/assets/icons/eye.svg

<svg width="19" height="12" viewBox="0 0 19 12" fill="none" xmlns="http://www.w3.org/2000/svg">
<path d="M9.5697 0C3.23598 0 0.86084 6 0.86084 6C0.86084 6 3.23598 12 9.5697 12C15.9034 12 18.2786 6 18.2786 6C18.2786 6 15.9034 0 9.5697 0ZM9.5697 1.5C13.7468 1.5 15.8596 4.70032 16.5436 5.99707C15.8588 7.28482 13.7302 10.5 9.5697 10.5C5.39261 10.5 3.27985 7.29968 2.59581 6.00293C3.28143 4.71518 5.40924 1.5 9.5697 1.5ZM9.5697 3C7.8208 3 6.40284 4.34325 6.40284 6C6.40284 7.65675 7.8208 9 9.5697 9C11.3186 9 12.7366 7.65675 12.7366 6C12.7366 4.34325 11.3186 3 9.5697 3ZM9.5697 4.5C10.4445 4.5 11.1531 5.17125 11.1531 6C11.1531 6.82875 10.4445 7.5 9.5697 7.5C8.69486 7.5 7.98627 6.82875 7.98627 6C7.98627 5.17125 8.69486 4.5 9.5697 4.5Z" fill="black"/>
</svg>

<svg width="19" height="12" fill="none" xmlns="http://www.w3.org/2000/svg"><path d="M9.57 0C3.236 0 .86 6 .86 6s2.376 6 8.71 6c6.333 0 8.709-6 8.709-6s-2.376-6-8.71-6Zm0 1.5c4.177 0 6.29 3.2 6.974 4.497C15.859 7.285 13.73 10.5 9.57 10.5c-4.177 0-6.29-3.2-6.974-4.497C3.28 4.715 5.409 1.5 9.57 1.5Zm0 1.5C7.82 3 6.403 4.343 6.403 6S7.82 9 9.57 9c1.749 0 3.167-1.343 3.167-3S11.319 3 9.57 3Zm0 1.5c.874 0 1.583.671 1.583 1.5s-.709 1.5-1.583 1.5c-.875 0-1.584-.671-1.584-1.5s.709-1.5 1.584-1.5Z" fill="#000"/></svg>
